X:1
T:Woodman, 77.77
T:Raymond Huntington Woodman, 1895
T:Woodman, 77.77
T:Public Domain
C:Raymond Huntington Woodman, 1895
Z:Public Domain
%%score ( 1 2 ) ( 3 4 )
L:1/8
M:4/4
K:F
V:1 treble 
V:2 treble 
V:3 bass 
V:4 bass 
V:1
 [CA]2 [^CA]2 [DA]2 [EA]2 | [DF]3 [DG] [CA]4 | D2 z A [FA]2 [FG]2 | [FA]2 [F=B]2 (E2 G2) | %4
 [Gc]3 [Gc] [GB]2 [^FA]2 | [GB]2 [GB]2 [GB]4 | [FA]2 [FA]2 [Fc]3 F | [CF]2 [CEG]2 [CF]4 |] %8
V:2
 x8 | x8 | A3 F2 x3 | x4 c4 | x8 | x8 | x7 F | x8 |] %8
V:3
 F,2 [E,G,]2 [D,F,]2 [C,E,]2 | B,,2 z E, [F,,F,]4 | [D,F,]2 [D,A,]2 [D,C]2 [G,=B,]2 | %3
 [G,C]2 [G,D]2 C2 [B,E]2 | A,2 z =E D2 [D,D]2 | [G,D]2 [F,_D]2 [E,C]4 | %6
 [F,C]2 [D,D]2 [A,,C]3 [B,,D] | [C,A,]2 [C,B,]2 [F,,F,A,]4 |] %8
V:4
 F,2 x6 | F,3 B,,2 x3 | x8 | x4 C2 x2 | _E3 F,2 D2 x | x8 | x8 | x8 |] %8

